X: 74
T:Misses Fancy. WM.073
M:2/4
L:1/8
Q:220
S:Wm.Mittell's MS,New Romney,Kent,1799
R:Cotillion
O:England
A:Kent
N:Hay contrary sides,then on your own sides,hands around ,lead through
N:the third couple & push() up,lead through the second couple and .....
Z:vmp.Chris Partington
K:CDorian
BcBF|dBfd|gecB|AcAF|BcBF|dBfd|gecA|B2B2:|!
|:gecg|fdBf|edcB|AcAF|BFdB|fdbd|ceAe|B2B2:||
